!!!!SEGMENT: pl-kk--kk-i-274--001_anonim-missa-rorate-caeli-desuper-rorate-caeli.krn
!!!id: 17xx:2077
!!!COM: Anonim
!!!OTL: Missa Rorate caeli desuper – Rorate caeli
!!!PDT:
!!!SMS-siglum: PL-Kk
!!!SMS-shelfmark: Kk.I.274
!!!NIFC-rismID: 1001147348
!!!URL-scan: http://repozytorium.nifc.pl/skany/pl-kk-nut--i-274
!!!ONB-nifc: UWAGA: części: 1. Rorate caeli, 2. Benedixisti, 3. Gloria patri, 4. Tollite portas (Quis ascendet należy do części), 5. Alleluia Ave Maria
!!!SMS-variant:
!!!SMS-altvar:
**kern	**text
*I"Baſſo	*
*I'B	*
*clefF4	*
*k[]	*
*M2/1	*
*met(C|)	*
*all\right	*
=1-	=1-
1C	Ro-
2D/	-ra-
1F\	.
=2-	=2-
.	.
4E\	.
4D\	.
1E	-te
=3-	=3-
2D/	ro-
1D	-ra-
4C/	.
4BB/	.
=4-	=4-
!LO:TX:t=P:problem:kreska pseudotaktowa	!
1AA	-te
!LO:TX:t=P:problem:kreska pseudotaktowa	!
1r	.
=5-	=5-
1D	ro-
(2AA/	-ra-
2D/)	.
=6-	=6-
1AA	-te
*2\right	*
2.A\	Cae-
4G\	.
=7-	=7-
2F\	.
!LO:LB:g=original	!
2D\	.
1E	.
=8-	=8-
2AA/	-li
1AA	ro-
2AA/	-ra-
=9-	=9-
2BB/	.
2C/	.
2D/	.
2E\	.
=10-	=10-
2AA/	-te
2A\	Cae-
2G\	.
4F\	.
4E\	.
=11-	=11-
2D/	.
2C/	-li
*lig	*
1G	de-
=12-	=12-
*col	*
2.A\	.
*Xlig	*
4G\	.
*Xcol	*
!LO:LB:g=original	!
2F\	.
2E\	-su-
=13-	=13-
1D	-per
2C/	et
2.C/	nu-
=14-	=14-
.	.
4D/	.
2E\	-bes
2.F\	nu-
4G\	.
=15-	=15-
2A\	.
4G\	.
4F\	.
1E	-bes
=16-	=16-
2D/	plu-
1F	-ant
4E/	.
4D/	.
=17-	=17-
2C/	jus-
2C/	-tum
2r	.
!LO:LB:g=original	!
2.F\	plu-
=18-	=18-
.	.
4E\	.
2D/	.
2C/	-ant
2D/	jus-
=19-	=19-
1AA	-tu(m)
2r	.
2D/	a-
=20-	=20-
2.F\	-pe-
4G\	-ri-
2.A\	-a-
4B\	.
=21-	=21-
2.c\	.
4B\	.
2A\	.
1G\	.
=22-	=22-
.	.
2F\	-tur
2.G\	a-
4F\	.
=23-	=23-
2.D\	-pe-
4E\	-ri-
!LO:LB:g=original	!
2F\	-a-
2G\	.
=24-	=24-
1D	-tur
(2GG/	ter-
2C/)	.
=25-	=25-
2GG/	-ra
2G\	a-
2G\	-pe-
2F\	-ri-
=26-	=26-
2G\	-a-
2E\	-tur
1D	ter-
=27-	=27-
2E\	-ra
2.C/	ter-
4BB/	.
2.AA/	.
=28-	=28-
.	.
4GG/	.
2AA/	.
1BB	.
=29-	=29-
2BB/	-ra
!LO:LB:g=original	!
2A\	et
2E\	ger-
2A\	.
=30-	=30-
4A\	-mi-
4A\	-net
2D\	Sal-
2E\	-va-
2E\	-to-
=31-	=31-
*M3/1	*
0AA	-rem
!LO:TX:t=P:problem:kreska pseudotaktowa	!
1D	&
=32-	=32-
1.C	ger-
2C/	-mi-
2C/	-net
2C/	et
=33-	=33-
1.F	ger-
2F\	-mi-
!LO:TX:t=P:problem:kreska pseudotaktowa	!
1C	-net
!LO:LB:g=original	!
=34-	=34-
*lig	*
1D	Sal-
1AA	.
*Xlig	*
1C	-va-
=35-	=35-
1D	-to-
0AA	.
=36-	=36-
0.Dl;;	-rem.
==	==
*-	*-
!!!RDF**kern: l = terminal long
!!!ENC: Kamil Watkowski
!!!END: 2021-03-10
!!!ENC: Andrzej Kubiczek
!!!END: 2021-03-28
